client/src/assets/icons/hand.svg

<svg width="58" height="58" viewBox="0 0 58 58" fill="none" xmlns="http://www.w3.org/2000/svg">
<path d="M7.57625 54.3749C8.53766 54.3749 9.45969 53.993 10.1395 53.3132C10.8193 52.6334 11.2012 51.7113 11.2012 50.7499V28.9999C11.2012 28.0385 10.8193 27.1165 10.1395 26.4367C9.45969 25.7568 8.53766 25.3749 7.57625 25.3749C6.61484 25.3749 5.69281 25.7568 5.01299 26.4367C4.33317 27.1165 3.95125 28.0385 3.95125 28.9999V50.7499C3.95125 51.7113 4.33317 52.6334 5.01299 53.3132C5.69281 53.993 6.61484 54.3749 7.57625 54.3749ZM20.8981 47.1249H14.8262V28.9999C17.2296 28.9999 19.2415 27.3107 20.4667 25.2408C21.6747 23.1993 23.365 21.4853 25.3895 20.2492C27.1222 19.1907 28.6774 17.6899 28.9746 15.6817V15.6599C29.4457 12.4849 29.4457 9.2577 28.9746 6.08266C28.8731 5.37941 29.1486 4.65441 29.7866 4.34629C30.8923 3.80984 32.1163 3.56328 33.3434 3.62976C34.5706 3.69623 35.7607 4.07357 36.802 4.72633C37.8433 5.37908 38.7016 6.28581 39.2962 7.36136C39.8908 8.4369 40.2022 9.64595 40.2012 10.8749C40.1988 13.8232 39.9149 16.6882 39.3494 19.4698C39.2908 19.7427 39.2937 20.0252 39.3576 20.2969C39.4216 20.5686 39.545 20.8227 39.7192 21.0409C39.8933 21.2591 40.1137 21.4358 40.3644 21.5584C40.6152 21.6811 40.89 21.7465 41.1691 21.7499H47.4512C51.4532 21.7499 54.7375 25.0052 54.3424 28.989C54.2699 29.7334 54.1853 30.4741 54.0886 31.2112C53.4136 36.3717 52.1849 41.4445 50.4237 46.3419C49.445 49.0534 46.806 50.7499 43.9241 50.7499H34.1257C33.3427 50.7499 32.5791 50.6255 31.8347 50.3765L23.1927 47.4983C22.4529 47.2512 21.6781 47.1251 20.8981 47.1249Z" fill="#011034"/>
</svg>

<svg xmlns="http://www.w3.org/2000/svg" width="58" height="58" fill="none" viewBox="0 0 58 58">
  <path fill="#011034" d="M7.576 54.375a3.625 3.625 0 0 0 3.625-3.625V29a3.625 3.625 0 0 0-7.25 0v21.75a3.625 3.625 0 0 0 3.625 3.625Zm13.322-7.25h-6.072V29c2.404 0 4.415-1.69 5.64-3.76a14.499 14.499 0 0 1 4.924-4.99c1.732-1.06 3.287-2.56 3.585-4.568v-.022a32.62 32.62 0 0 0 0-9.577c-.102-.704.174-1.429.812-1.737A7.25 7.25 0 0 1 40.2 10.875a43.222 43.222 0 0 1-.852 8.595 1.886 1.886 0 0 0 1.82 2.28h6.282c4.002 0 7.286 3.255 6.891 7.239a72.504 72.504 0 0 1-3.919 17.353c-.978 2.711-3.617 4.408-6.499 4.408h-9.798a7.175 7.175 0 0 1-2.291-.373l-8.642-2.879a7.25 7.25 0 0 0-2.295-.373Z"/>
</svg>
